X: 10
T:Fair Jennie
M:6/8
K:D
|:f2 f fgf|ecA ecA|Bcd ecA|Bcd egg|
f2 f fgf|ecA ecA|Bcd ecA|ABc d2:|
A|:B2 B B=cB|DBB BcB|AFD dDD|^cDD =cDD|
B2 B BcB|DBB BcB|1ABA AB^c|d z d z =c z :|
2ABA AB^c|d3 d2|

